resources/svg/vip-crown-fill.svg

<svg fill="currentColor" viewBox="0 0 24 24" xmlns="http://www.w3.org/2000/svg"><path d="M2.00488 19H22.0049V21H2.00488V19ZM2.00488 5L7.00488 8L12.0049 2L17.0049 8L22.0049 5V17H2.00488V5Z"/></svg>

<svg xmlns="http://www.w3.org/2000/svg" viewBox="0 0 24 24" fill="currentColor">
    <g>
        <path fill="none" d="M0 0h24v24H0z"/>
        <path d="M2 19h20v2H2v-2zM2 5l5 3 5-6 5 6 5-3v12H2V5z"/>
    </g>
</svg>
